assets/companies/light/amazon.svg

<svg width="44" height="41" viewBox="0 0 44 41" fill="none" xmlns="http://www.w3.org/2000/svg">
<path d="M25.9702 10.5337C24.9077 10.618 23.6804 10.7023 22.4531 10.8672C20.5736 11.1089 18.6942 11.4387 17.142 12.1726C14.1183 13.4049 12.074 16.022 12.074 19.8701C12.074 24.7026 15.1808 27.1536 19.1021 27.1536C20.4125 27.1536 21.4737 26.9936 22.4531 26.7469C24.0089 26.256 25.3168 25.3547 26.869 23.7208C27.7703 24.9481 28.0133 25.5221 29.5679 26.8312C29.9758 26.9961 30.3836 26.9961 30.7109 26.7494C31.6915 25.9324 33.4061 24.4584 34.3074 23.6402C34.714 23.3092 34.6334 22.8219 34.3892 22.4104C33.4879 21.2648 32.5916 20.2805 32.5916 18.0738V10.706C32.5916 7.59058 32.8333 4.72803 30.5498 2.60189C28.6678 0.877423 25.726 0.226562 23.4399 0.226562C23.1126 0.226562 22.7865 0.226562 22.458 0.226562C18.29 0.47079 13.8778 2.2684 12.8947 7.43065C12.7335 8.08151 13.2257 8.3307 13.5518 8.41376L18.1276 8.989C18.6186 8.90222 18.8628 8.49558 18.9434 8.08399C19.3562 6.28762 20.8253 5.38633 22.4593 5.22145C22.5423 5.22145 22.6241 5.22145 22.7878 5.22145C23.7672 5.22145 24.8284 5.63304 25.4024 6.44507C26.0508 7.43065 25.9739 8.74229 25.9739 9.88533L25.9702 10.5337ZM25.0714 20.2755C24.4999 21.4223 23.518 22.1587 22.4555 22.4054C22.2931 22.4054 22.0501 22.4897 21.8034 22.4897C20.0058 22.4897 18.9397 21.0975 18.9397 19.0494C18.9397 16.4336 20.4943 15.2013 22.4555 14.6298C23.518 14.3856 24.7453 14.3013 25.9714 14.3013V15.2844C25.9702 17.1688 26.047 18.6403 25.0714 20.2755ZM43.9091 31.6426V31.9092C43.8657 33.5097 43.0215 36.5805 41.023 38.2703C40.6238 38.5802 40.2234 38.4029 40.3994 37.9554C40.9809 36.5359 42.3099 33.2407 41.6888 32.4857C41.2487 31.9092 39.425 31.9526 37.8716 32.0865C37.1625 32.1757 36.5389 32.2166 36.0505 32.3133C35.6079 32.3543 35.5161 31.9575 35.9624 31.6476C36.5401 31.2472 37.1637 30.9372 37.8729 30.7104C40.4007 29.9566 43.3351 30.4004 43.7356 30.8914C43.8223 31.0178 43.9091 31.2844 43.9091 31.6426ZM39.6915 34.7544C39.1138 35.197 38.4952 35.5999 37.8716 35.9606C33.209 38.7637 27.1715 40.2266 21.9336 40.2266C13.4947 40.2266 5.94724 37.1124 0.220914 31.9092C-0.27002 31.5075 0.130414 30.931 0.70813 31.241C6.87952 34.8436 14.5163 37.0256 22.4196 37.0256C27.3946 37.0256 32.7614 36.0908 37.8704 34.0862C38.2237 33.9572 38.6241 33.7738 38.9799 33.6448C39.7796 33.2841 40.4912 34.1804 39.6915 34.7544Z" fill="#8B8D98" fill-opacity="1"/>
</svg>

<svg xmlns="http://www.w3.org/2000/svg" width="44" height="41" fill="none" viewBox="0 0 44 41"><path fill="#8B8D98" d="M25.97 10.534c-1.062.084-2.29.168-3.517.333-1.88.242-3.759.572-5.311 1.306-3.024 1.232-5.068 3.849-5.068 7.697 0 4.833 3.107 7.284 7.028 7.284 1.31 0 2.372-.16 3.351-.407 1.556-.491 2.864-1.392 4.416-3.026.901 1.227 1.144 1.801 2.699 3.11.408.165.816.165 1.143-.082.98-.817 2.695-2.29 3.596-3.109.407-.33.326-.818.082-1.23-.901-1.145-1.797-2.13-1.797-4.336v-7.368c0-3.115.241-5.978-2.042-8.104C28.668.877 25.726.227 23.44.227h-.982c-4.168.244-8.58 2.041-9.563 7.204-.162.65.33.9.657.983l4.576.575c.49-.087.735-.493.815-.905.413-1.796 1.882-2.698 3.516-2.863h.329c.98 0 2.04.412 2.614 1.224.649.986.572 2.297.572 3.44zm-.899 9.742c-.571 1.146-1.553 1.883-2.616 2.13-.162 0-.405.084-.652.084-1.797 0-2.863-1.392-2.863-3.44 0-2.616 1.554-3.849 3.515-4.42 1.063-.244 2.29-.329 3.516-.329v.983c0 1.885.076 3.356-.9 4.992M43.91 31.643v.266c-.043 1.6-.887 4.672-2.886 6.361-.4.31-.8.133-.624-.315.582-1.42 1.91-4.714 1.29-5.47-.44-.576-2.264-.532-3.817-.398-.71.089-1.333.13-1.822.226-.442.041-.534-.356-.088-.665a7.1 7.1 0 0 1 1.91-.938c2.529-.753 5.463-.31 5.864.181.086.127.173.393.173.752m-4.218 3.111a17 17 0 0 1-1.82 1.207c-4.662 2.803-10.7 4.266-15.937 4.266-8.44 0-15.987-3.115-21.713-8.318-.491-.401-.09-.978.487-.668 6.172 3.603 13.808 5.785 21.712 5.785 4.975 0 10.341-.935 15.45-2.94.354-.129.754-.312 1.11-.441.8-.36 1.511.535.712 1.11"/></svg>
